X:1
T:Through Me
T:Through Me
T:Daniel Brink Towner
T:Katherine Osbourne Barker, 1901
T:Public Domain Courtesy of the Cyber Hymnal™
T:Public Domain Courtesy of the Cyber Hymnal™
C:Daniel Brink Towner
Z:Public Domain
Z:Courtesy of the Cyber Hymnal™
%%score ( 1 2 ) ( 3 4 )
L:1/8
Q:1/4=85
M:6/8
K:G
V:1 treble 
V:2 treble 
V:3 bass 
V:4 bass 
V:1
 [B,D]/[B,D]/ | [B,D]>[B,D][B,D] [CE][B,D][B,D] | [B,D][DG][DA] [DB]2 [DB] | %3
w: 1.~I am|on- ly a toil- er of|hum- ble es- tate, And|
w: 2.~I am|on- ly a keep- er of|some- bo- dy’s door, And|
w: 3.~I am|on- ly a wan- der- er|o- ver life’s way, Where|
w: 4.~I am|on- ly a suf- fer- er,|learn- ing to wait Till|
 [CA][CE][CE] [CF]2 [CD] | [B,G]3- [B,G]2 [B,D] | [B,D]>[B,D][B,D] [CE][B,D][B,D] | %6
w: oft- en at fault may|be; * But|Thou, in Thy mer- cy so|
w: ev- er on watch must|be; * To|men, who in pass- ing shall|
w: ma- ny a wreck I|see; * Grant,|Lord, that my hand may help|
w: I shall from earth be|free— * O|grant me an en- trance at|
 [B,D][DG][DA] [DB]2 [GB] | [FA][FA][EG] [DF]2 [^CE] | D6 || %9
w: lov- ing and great, Canst|let Thy light shine thro’|me.|
w: en- ter no more, O|let Thy light shine thro’|me.|
w: some- one some day, O|let Thy light shine thro’|me.|
w: Heav- en’s fair gate, Lord,|let Thy light shine thro’|me.|
"^Refrain" [Ac]>[Ac][Ac] ([Ac][GB])[FA] | [GB]6 | [GB]>[GB][GB] (^cB)[Gc] | d3- [Ad]2 [Fc] | %13
w: ||||
w: Let Thy light shine * thro’|me,|Let Thy light shine * thro’|me; O strength-|
w: ||||
w: ||||
 [GB]>[DB][DB] [^DB]2 [DA] | [EA][EG][EG] !fermata![Gc]2 [Gc] | [GB]>[GA]G [Fd]2 [DF] | %16
w: |||
w: * en my faith, new|cour- age in- spire, And|let Thy light shine thro’|
w: |||
w: |||
 G3- [DG]3 |] %17
w: |
w: me. *|
w: |
w: |
V:2
 x | x6 | x6 | x6 | x6 | x6 | x6 | x6 | D6 || x6 | x6 | x3 G2 x | F2 G x3 | x6 | x6 | x2 G x3 | %16
 D^CE x3 |] %17
V:3
 G,/G,/ | G,>G,G, G,G,G, | [G,,G,][B,,G,][D,F,] G,2 [B,,G,] | [C,E,][C,G,][C,C] [D,A,]2 [F,A,] | %4
w: ~ ~|~ ~ ~ ~ ~ ~|~ ~ ~ ~ ~|~ ~ ~ ~ ~|
 G,3- G,2 G, | G,>G,G, G,G,G, | [G,,G,][B,,G,][D,F,] G,2 [G,D] | [A,D][A,D]A, [A,,A,]2 [A,,G,] | %8
w: ~ * ~|~ ~ ~ ~ ~ ~|~ ~ ~ ~ ~|~ ~ ~ ~ ~|
 [D,F,]6 || [D,F,]>[D,F,][D,A,] [D,D]2 [D,D] | D2 [B,,D] [G,,D]3 | [E,E]>[E,E][E,E] (E^C)A, | %12
w: ~|~ ~ ~ ~ ~|~ thro’ me,|~ ~ ~ ~ * ~|
 A,2 B, [D,C]2 [D,A,] | G,>G,G, [B,,F,]2 [B,,F,] | [C,E,][C,G,][C,C] !fermata![C,E]2 [C,E] | %15
w: ~ thro’~me; ~ ~|~ ~ ~ ~ ~|~ ~ ~ ~ ~|
 [D,D]>[D,C][D,B,] [D,A,]2 [D,C] | B,^A,C [G,,G,B,]3 |] %17
w: * ~ ~ ~ ~|~ ~ thro’~me *|
V:4
 G,/G,/ | G,>G,G, G,G,G, | x3 G,2 x | x6 | G,3- G,2 G, | G,>G,G, G,G,G, | x3 G,2 x | x2 A, x3 | %8
 x6 || x6 | (G,D,) x4 | x3 A,2 A, | D,3- x3 | G,>G,G, x3 | x6 | x6 | [G,,G,]3- x3 |] %17

